svg/transport/four_wheel_drive_line.svg

<?xml version="1.0" encoding="UTF-8"?>
<svg width="24px" height="24px" viewBox="0 0 24 24" version="1.1" xmlns="http://www.w3.org/2000/svg" xmlns:xlink="http://www.w3.org/1999/xlink">
    <title>4wd_four_wheel_drive_line</title>
    <g id="页面-1" stroke="none" stroke-width="1" fill="none" fill-rule="evenodd">
        <g id="Transport" transform="translate(-144.000000, -96.000000)">
            <g id="4wd_four_wheel_drive_line" transform="translate(144.000000, 96.000000)">
                 <path d="M24,0 L24,24 L0,24 L0,0 L24,0 Z M12.5934901,23.257841 L12.5819402,23.2595131 L12.5108777,23.2950439 L12.4918791,23.2987469 L12.4918791,23.2987469 L12.4767152,23.2950439 L12.4056548,23.2595131 C12.3958229,23.2563662 12.3870493,23.2590235 12.3821421,23.2649074 L12.3780323,23.275831 L12.360941,23.7031097 L12.3658947,23.7234994 L12.3769048,23.7357139 L12.4804777,23.8096931 L12.4953491,23.8136134 L12.4953491,23.8136134 L12.5071152,23.8096931 L12.6106902,23.7357139 L12.6232938,23.7196733 L12.6232938,23.7196733 L12.6266527,23.7031097 L12.609561,23.275831 C12.6075724,23.2657013 12.6010112,23.2592993 12.5934901,23.257841 L12.5934901,23.257841 Z M12.8583906,23.1452862 L12.8445485,23.1473072 L12.6598443,23.2396597 L12.6498822,23.2499052 L12.6498822,23.2499052 L12.6471943,23.2611114 L12.6650943,23.6906389 L12.6699349,23.7034178 L12.6699349,23.7034178 L12.678386,23.7104931 L12.8793402,23.8032389 C12.8914285,23.8068999 12.9022333,23.8029875 12.9078286,23.7952264 L12.9118235,23.7811639 L12.8776777,23.1665331 C12.8752882,23.1545897 12.8674102,23.1470016 12.8583906,23.1452862 L12.8583906,23.1452862 Z M12.1430473,23.1473072 C12.1332178,23.1423925 12.1221763,23.1452606 12.1156365,23.1525954 L12.1099173,23.1665331 L12.0757714,23.7811639 C12.0751323,23.7926639 12.0828099,23.8018602 12.0926481,23.8045676 L12.108256,23.8032389 L12.3092106,23.7104931 L12.3186497,23.7024347 L12.3186497,23.7024347 L12.3225043,23.6906389 L12.340401,23.2611114 L12.337245,23.2485176 L12.337245,23.2485176 L12.3277531,23.2396597 L12.1430473,23.1473072 Z" id="MingCute" fill-rule="nonzero"></path>
                <path d="M17,2 C18.6569,2 20,3.34315 20,5 L20,7 C20,8.65685 18.6569,10 17,10 C15.3431,10 14,8.65685 14,7 L13,7 L13,17 L14,17 C14,15.3431 15.3431,14 17,14 C18.6569,14 20,15.3431 20,17 L20,19 C20,20.6569 18.6569,22 17,22 C15.3431,22 14,20.6569 14,19 L10,19 C10,20.6569 8.65685,22 7,22 C5.34315,22 4,20.6569 4,19 L4,17 C4,15.3431 5.34315,14 7,14 C8.65685,14 10,15.3431 10,17 L11,17 L11,7 L10,7 C10,8.65685 8.65685,10 7,10 C5.34315,10 4,8.65685 4,7 L4,5 C4,3.34315 5.34315,2 7,2 C8.65685,2 10,3.34315 10,5 L14,5 C14,3.34315 15.3431,2 17,2 Z M17,16 C16.48715,16 16.0644908,16.386027 16.0067275,16.8833761 L16,17 L16,19 C16,19.5523 16.4477,20 17,20 C17.51285,20 17.9355092,19.613973 17.9932725,19.1166239 L18,19 L18,17 C18,16.4477 17.5523,16 17,16 Z M7,16 C6.48716857,16 6.06449347,16.386027 6.0067278,16.8833761 L6,17 L6,19 C6,19.5523 6.44772,20 7,20 C7.51283143,20 7.93550653,19.613973 7.9932722,19.1166239 L8,19 L8,17 C8,16.4477 7.55228,16 7,16 Z M7,4 C6.44772,4 6,4.44772 6,5 L6,7 C6,7.55228 6.44772,8 7,8 C7.55228,8 8,7.55228 8,7 L8,5 C8,4.44772 7.55228,4 7,4 Z M17,4 C16.4477,4 16,4.44772 16,5 L16,7 C16,7.55228 16.4477,8 17,8 C17.5523,8 18,7.55228 18,7 L18,5 C18,4.44772 17.5523,4 17,4 Z" id="形状" fill="#09244B"></path>
            </g>
        </g>
    </g>
</svg>

<svg xmlns="http://www.w3.org/2000/svg" width="24" height="24"><g fill="none" fill-rule="evenodd"><path d="M24 0v24H0V0h24ZM12.593 23.258l-.011.002-.071.035-.02.004-.014-.004-.071-.035c-.01-.004-.019-.001-.024.005l-.004.01-.017.428.005.02.01.013.104.074.015.004.012-.004.104-.074.012-.016.004-.017-.017-.427c-.002-.01-.009-.017-.017-.018Zm.265-.113-.013.002-.185.093-.01.01-.003.011.018.43.005.012.008.007.201.093c.012.004.023 0 .029-.008l.004-.014-.034-.614c-.003-.012-.01-.02-.02-.022Zm-.715.002a.023.023 0 0 0-.027.006l-.006.014-.034.614c0 .012.007.02.017.024l.015-.002.201-.093.01-.008.004-.011.017-.43-.003-.012-.01-.01-.184-.092Z"/><path fill="#09244B" d="M17 2a3 3 0 0 1 3 3v2a3 3 0 1 1-6 0h-1v10h1a3 3 0 1 1 6 0v2a3 3 0 1 1-6 0h-4a3 3 0 1 1-6 0v-2a3 3 0 1 1 6 0h1V7h-1a3 3 0 0 1-6 0V5a3 3 0 0 1 6 0h4a3 3 0 0 1 3-3Zm0 14a1 1 0 0 0-.993.883L16 17v2a1 1 0 0 0 1.993.117L18 19v-2a1 1 0 0 0-1-1ZM7 16a1 1 0 0 0-.993.883L6 17v2a1 1 0 0 0 1.993.117L8 19v-2a1 1 0 0 0-1-1ZM7 4a1 1 0 0 0-1 1v2a1 1 0 0 0 2 0V5a1 1 0 0 0-1-1Zm10 0a1 1 0 0 0-1 1v2a1 1 0 1 0 2 0V5a1 1 0 0 0-1-1Z"/></g></svg>
